icons/battery-charge.svg

<svg width="24" height="24" viewBox="0 0 24 24" fill="none" xmlns="http://www.w3.org/2000/svg">
<path fill-rule="evenodd" clip-rule="evenodd" d="M11.5547 5.16793C12.0142 5.47429 12.1384 6.09516 11.8321 6.55468L8.86852 11H13C13.3688 11 13.7077 11.203 13.8817 11.5281C14.0557 11.8533 14.0366 12.2478 13.8321 12.5547L9.83205 18.5547C9.5257 19.0142 8.90483 19.1384 8.4453 18.832C7.98577 18.5257 7.8616 17.9048 8.16795 17.4453L11.1315 13H7C6.6312 13 6.29234 12.797 6.11833 12.4718C5.94431 12.1467 5.96338 11.7521 6.16795 11.4453L10.1679 5.44528C10.4743 4.98576 11.0952 4.86158 11.5547 5.16793ZM1 5.99998C1 5.4477 1.44772 4.99998 2 4.99998H7C7.55228 4.99998 8 5.4477 8 5.99998C8 6.55227 7.55228 6.99998 7 6.99998H3V17H5C5.55228 17 6 17.4477 6 18C6 18.5523 5.55228 19 5 19H2C1.44772 19 1 18.5523 1 18V5.99998ZM14 5.99998C14 5.4477 14.4477 4.99998 15 4.99998H19C19.5523 4.99998 20 5.4477 20 5.99998V18C20 18.5523 19.5523 19 19 19H13C12.4477 19 12 18.5523 12 18C12 17.4477 12.4477 17 13 17H18V6.99998H15C14.4477 6.99998 14 6.55227 14 5.99998ZM22 8.99998C22.5523 8.99998 23 9.4477 23 9.99998V14C23 14.5523 22.5523 15 22 15C21.4477 15 21 14.5523 21 14V9.99998C21 9.4477 21.4477 8.99998 22 8.99998Z" fill="black"/>
</svg>

<svg
  width="24"
  height="24"
  viewBox="0 0 24 24"
  xmlns="http://www.w3.org/2000/svg"
>
  <path
    fill-rule="evenodd"
    clip-rule="evenodd"
    d="M11.555 5.168a1 1 0 0 1 .277 1.387L8.87 11H13a1 1 0 0 1 .832 1.555l-4 6a1 1 0 0 1-1.664-1.11L11.132 13H7a1 1 0 0 1-.832-1.555l4-6a1 1 0 0 1 1.387-.277zM1 6a1 1 0 0 1 1-1h5a1 1 0 0 1 0 2H3v10h2a1 1 0 1 1 0 2H2a1 1 0 0 1-1-1V6zm13 0a1 1 0 0 1 1-1h4a1 1 0 0 1 1 1v12a1 1 0 0 1-1 1h-6a1 1 0 1 1 0-2h5V7h-3a1 1 0 0 1-1-1zm8 3a1 1 0 0 1 1 1v4a1 1 0 1 1-2 0v-4a1 1 0 0 1 1-1z"
  />
</svg>
